icons/modern/anger-symbol.svg

<svg width="32" height="32" viewBox="0 0 32 32" fill="none" xmlns="http://www.w3.org/2000/svg">
<path fill-rule="evenodd" clip-rule="evenodd" d="M6.55206 2.80411C7.2859 1.97854 8.55004 1.90418 9.37561 2.63802C13.1178 5.96444 18.9759 5.96444 22.7182 2.63802C23.5437 1.90418 24.8079 1.97854 25.5417 2.80411C26.2755 3.62967 26.2012 4.89382 25.3756 5.62765C20.1178 10.3012 11.9759 10.3012 6.71815 5.62765C5.89259 4.89382 5.81823 3.62967 6.55206 2.80411Z" fill="url(#paint0_linear_7139_6188)"/>
<path fill-rule="evenodd" clip-rule="evenodd" d="M6.55206 2.80411C7.2859 1.97854 8.55004 1.90418 9.37561 2.63802C13.1178 5.96444 18.9759 5.96444 22.7182 2.63802C23.5437 1.90418 24.8079 1.97854 25.5417 2.80411C26.2755 3.62967 26.2012 4.89382 25.3756 5.62765C20.1178 10.3012 11.9759 10.3012 6.71815 5.62765C5.89259 4.89382 5.81823 3.62967 6.55206 2.80411Z" fill="url(#paint1_radial_7139_6188)"/>
<path fill-rule="evenodd" clip-rule="evenodd" d="M6.55206 2.80411C7.2859 1.97854 8.55004 1.90418 9.37561 2.63802C13.1178 5.96444 18.9759 5.96444 22.7182 2.63802C23.5437 1.90418 24.8079 1.97854 25.5417 2.80411C26.2755 3.62967 26.2012 4.89382 25.3756 5.62765C20.1178 10.3012 11.9759 10.3012 6.71815 5.62765C5.89259 4.89382 5.81823 3.62967 6.55206 2.80411Z" fill="url(#paint2_linear_7139_6188)"/>
<path fill-rule="evenodd" clip-rule="evenodd" d="M6.55206 2.80411C7.2859 1.97854 8.55004 1.90418 9.37561 2.63802C13.1178 5.96444 18.9759 5.96444 22.7182 2.63802C23.5437 1.90418 24.8079 1.97854 25.5417 2.80411C26.2755 3.62967 26.2012 4.89382 25.3756 5.62765C20.1178 10.3012 11.9759 10.3012 6.71815 5.62765C5.89259 4.89382 5.81823 3.62967 6.55206 2.80411Z" fill="url(#paint3_linear_7139_6188)"/>
<path fill-rule="evenodd" clip-rule="evenodd" d="M22.6779 29.5908C19.1875 26.3135 12.9063 26.3135 9.41588 29.5907C8.61064 30.3468 7.34494 30.307 6.58886 29.5017C5.83278 28.6965 5.87264 27.4308 6.67788 26.6747C11.7075 21.9522 20.3863 21.9522 25.4159 26.6748C26.2211 27.4309 26.261 28.6966 25.5049 29.5018C24.7488 30.3071 23.4831 30.3469 22.6779 29.5908Z" fill="url(#paint4_linear_7139_6188)"/>
<path fill-rule="evenodd" clip-rule="evenodd" d="M22.6779 29.5908C19.1875 26.3135 12.9063 26.3135 9.41588 29.5907C8.61064 30.3468 7.34494 30.307 6.58886 29.5017C5.83278 28.6965 5.87264 27.4308 6.67788 26.6747C11.7075 21.9522 20.3863 21.9522 25.4159 26.6748C26.2211 27.4309 26.261 28.6966 25.5049 29.5018C24.7488 30.3071 23.4831 30.3469 22.6779 29.5908Z" fill="url(#paint5_radial_7139_6188)"/>
<path fill-rule="evenodd" clip-rule="evenodd" d="M22.6779 29.5908C19.1875 26.3135 12.9063 26.3135 9.41588 29.5907C8.61064 30.3468 7.34494 30.307 6.58886 29.5017C5.83278 28.6965 5.87264 27.4308 6.67788 26.6747C11.7075 21.9522 20.3863 21.9522 25.4159 26.6748C26.2211 27.4309 26.261 28.6966 25.5049 29.5018C24.7488 30.3071 23.4831 30.3469 22.6779 29.5908Z" fill="url(#paint6_radial_7139_6188)"/>
<path fill-rule="evenodd" clip-rule="evenodd" d="M29.4159 6.67481C30.2211 7.4309 30.261 8.6966 29.5049 9.50184C26.2275 12.9922 26.2275 19.2734 29.5049 22.7638C30.261 23.569 30.2211 24.8347 29.4159 25.5908C28.6107 26.3469 27.345 26.3071 26.5889 25.5018C21.8662 20.4722 21.8662 11.7934 26.5889 6.7638C27.3449 5.95856 28.6107 5.91872 29.4159 6.67481Z" fill="url(#paint7_linear_7139_6188)"/>
<path fill-rule="evenodd" clip-rule="evenodd" d="M29.4159 6.67481C30.2211 7.4309 30.261 8.6966 29.5049 9.50184C26.2275 12.9922 26.2275 19.2734 29.5049 22.7638C30.261 23.569 30.2211 24.8347 29.4159 25.5908C28.6107 26.3469 27.345 26.3071 26.5889 25.5018C21.8662 20.4722 21.8662 11.7934 26.5889 6.7638C27.3449 5.95856 28.6107 5.91872 29.4159 6.67481Z" fill="url(#paint8_radial_7139_6188)"/>
<path fill-rule="evenodd" clip-rule="evenodd" d="M2.67786 6.67481C3.4831 5.91872 4.7488 5.95856 5.50489 6.7638C10.2275 11.7934 10.2275 20.4723 5.50489 25.5019C4.7488 26.3071 3.4831 26.347 2.67786 25.5909C1.87263 24.8348 1.83279 23.5691 2.58887 22.7639C5.86622 19.2735 5.86622 12.9922 2.58887 9.50184C1.83279 8.6966 1.87263 7.4309 2.67786 6.67481Z" fill="url(#paint9_linear_7139_6188)"/>
<path fill-rule="evenodd" clip-rule="evenodd" d="M2.67786 6.67481C3.4831 5.91872 4.7488 5.95856 5.50489 6.7638C10.2275 11.7934 10.2275 20.4723 5.50489 25.5019C4.7488 26.3071 3.4831 26.347 2.67786 25.5909C1.87263 24.8348 1.83279 23.5691 2.58887 22.7639C5.86622 19.2735 5.86622 12.9922 2.58887 9.50184C1.83279 8.6966 1.87263 7.4309 2.67786 6.67481Z" fill="url(#paint10_radial_7139_6188)"/>
<path fill-rule="evenodd" clip-rule="evenodd" d="M2.67786 6.67481C3.4831 5.91872 4.7488 5.95856 5.50489 6.7638C10.2275 11.7934 10.2275 20.4723 5.50489 25.5019C4.7488 26.3071 3.4831 26.347 2.67786 25.5909C1.87263 24.8348 1.83279 23.5691 2.58887 22.7639C5.86622 19.2735 5.86622 12.9922 2.58887 9.50184C1.83279 8.6966 1.87263 7.4309 2.67786 6.67481Z" fill="url(#paint11_linear_7139_6188)"/>
<g filter="url(#filter0_f_7139_6188)">
<path d="M8.39062 3.53906C9.43229 4.60156 15.6406 9.19531 23.6094 4.00781" stroke="url(#paint12_linear_7139_6188)" stroke-linecap="round"/>
</g>
<g filter="url(#filter1_f_7139_6188)">
<ellipse cx="24.1876" cy="4.1118" rx="0.861741" ry="1.3257" transform="rotate(48.8848 24.1876 4.1118)" fill="url(#paint13_linear_7139_6188)"/>
</g>
<g filter="url(#filter2_f_7139_6188)">
<ellipse cx="28.0348" cy="8.15232" rx="0.861741" ry="1.3257" transform="rotate(48.8848 28.0348 8.15232)" fill="url(#paint14_linear_7139_6188)"/>
</g>
<g filter="url(#filter3_f_7139_6188)">
<ellipse cx="24.4666" cy="27.771" rx="0.861741" ry="1.3257" transform="rotate(121.165 24.4666 27.771)" fill="url(#paint15_linear_7139_6188)"/>
</g>
<g filter="url(#filter4_f_7139_6188)">
<path d="M28.9363 8.0469C27.8315 9.04361 22.4219 16.4451 28.9363 24.0701" stroke="url(#paint16_linear_7139_6188)" stroke-linecap="round"/>
</g>
<g filter="url(#filter5_f_7139_6188)">
<path d="M24.6094 27.5893C22.4531 25.8203 13.7969 22.164 7.82812 27.9453" stroke="url(#paint17_linear_7139_6188)" stroke-linecap="round"/>
</g>
<g filter="url(#filter6_f_7139_6188)">
<path d="M4.80611 7.84014C6.73036 9.85911 10.1283 18.0793 4.80611 24.4608" stroke="url(#paint18_linear_7139_6188)" stroke-linecap="round"/>
</g>
<defs>
<filter id="filter0_f_7139_6188" x="6.64062" y="1.78906" width="18.7188" height="6.39185" filterUnits="userSpaceOnUse" color-interpolation-filters="sRGB">
<feFlood flood-opacity="0" result="BackgroundImageFix"/>
<feBlend mode="normal" in="SourceGraphic" in2="BackgroundImageFix" result="shape"/>
<feGaussianBlur stdDeviation="0.625" result="effect1_foregroundBlur_7139_6188"/>
</filter>
<filter id="filter1_f_7139_6188" x="22.0391" y="2.0249" width="4.29704" height="4.17383" filterUnits="userSpaceOnUse" color-interpolation-filters="sRGB">
<feFlood flood-opacity="0" result="BackgroundImageFix"/>
<feBlend mode="normal" in="SourceGraphic" in2="BackgroundImageFix" result="shape"/>
<feGaussianBlur stdDeviation="0.5" result="effect1_foregroundBlur_7139_6188"/>
</filter>
<filter id="filter2_f_7139_6188" x="25.8863" y="6.06543" width="4.29704" height="4.17383" filterUnits="userSpaceOnUse" color-interpolation-filters="sRGB">
<feFlood flood-opacity="0" result="BackgroundImageFix"/>
<feBlend mode="normal" in="SourceGraphic" in2="BackgroundImageFix" result="shape"/>
<feGaussianBlur stdDeviation="0.5" result="effect1_foregroundBlur_7139_6188"/>
</filter>
<filter id="filter3_f_7139_6188" x="22.2473" y="25.7639" width="4.43843" height="4.0144" filterUnits="userSpaceOnUse" color-interpolation-filters="sRGB">
<feFlood flood-opacity="0" result="BackgroundImageFix"/>
<feBlend mode="normal" in="SourceGraphic" in2="BackgroundImageFix" result="shape"/>
<feGaussianBlur stdDeviation="0.5" result="effect1_foregroundBlur_7139_6188"/>
</filter>
<filter id="filter4_f_7139_6188" x="24.0297" y="6.29688" width="6.65666" height="19.5232" filterUnits="userSpaceOnUse" color-interpolation-filters="sRGB">
<feFlood flood-opacity="0" result="BackgroundImageFix"/>
<feBlend mode="normal" in="SourceGraphic" in2="BackgroundImageFix" result="shape"/>
<feGaussianBlur stdDeviation="0.625" result="effect1_foregroundBlur_7139_6188"/>
</filter>
<filter id="filter5_f_7139_6188" x="6.07812" y="23.063" width="20.2813" height="6.63232" filterUnits="userSpaceOnUse" color-interpolation-filters="sRGB">
<feFlood flood-opacity="0" result="BackgroundImageFix"/>
<feBlend mode="normal" in="SourceGraphic" in2="BackgroundImageFix" result="shape"/>
<feGaussianBlur stdDeviation="0.625" result="effect1_foregroundBlur_7139_6188"/>
</filter>
<filter id="filter6_f_7139_6188" x="3.0561" y="6.09009" width="6.35332" height="20.1208" filterUnits="userSpaceOnUse" color-interpolation-filters="sRGB">
<feFlood flood-opacity="0" result="BackgroundImageFix"/>
<feBlend mode="normal" in="SourceGraphic" in2="BackgroundImageFix" result="shape"/>
<feGaussianBlur stdDeviation="0.625" result="effect1_foregroundBlur_7139_6188"/>
</filter>
<linearGradient id="paint0_linear_7139_6188" x1="29.5469" y1="-1.11133" x2="6.67188" y2="-1.11133" gradientUnits="userSpaceOnUse">
<stop stop-color="#E81123"/>
<stop offset="0.371585" stop-color="#EA0A4F"/>
<stop offset="1" stop-color="#EC008C"/>
</linearGradient>
<radialGradient id="paint1_radial_7139_6188" cx="0" cy="0" r="1" gradientUnits="userSpaceOnUse" gradientTransform="translate(16.6094 3.94534) rotate(91.7534) scale(6.12787 12.2872)">
<stop offset="0.688277" stop-color="#A11749" stop-opacity="0"/>
<stop offset="1" stop-color="#A21749"/>
</radialGradient>
<linearGradient id="paint2_linear_7139_6188" x1="13.7344" y1="0.57034" x2="2.98437" y2="1.69534" gradientUnits="userSpaceOnUse">
<stop offset="0.526882" stop-color="#A11749" stop-opacity="0"/>
<stop offset="1" stop-color="#A21749"/>
</linearGradient>
<linearGradient id="paint3_linear_7139_6188" x1="18.1719" y1="4.75784" x2="18.2344" y2="-0.36716" gradientUnits="userSpaceOnUse">
<stop offset="0.29689" stop-color="#A11749" stop-opacity="0"/>
<stop offset="0.773939" stop-color="#A21749"/>
</linearGradient>
<linearGradient id="paint4_linear_7139_6188" x1="2.67188" y1="31.2578" x2="23.1719" y2="31.2578" gradientUnits="userSpaceOnUse">
<stop stop-color="#E81123"/>
<stop offset="0.4437" stop-color="#EA0A4F"/>
<stop offset="1" stop-color="#EC008C"/>
</linearGradient>
<radialGradient id="paint5_radial_7139_6188" cx="0" cy="0" r="1" gradientUnits="userSpaceOnUse" gradientTransform="translate(16.0469 28.0078) rotate(-94.0857) scale(6.14061 12.3127)">
<stop offset="0.688277" stop-color="#A11749" stop-opacity="0"/>
<stop offset="1" stop-color="#A21749"/>
</radialGradient>
<radialGradient id="paint6_radial_7139_6188" cx="0" cy="0" r="1" gradientUnits="userSpaceOnUse" gradientTransform="translate(16.0469 28.5078) rotate(90) scale(3.1875 7.32701)">
<stop stop-color="#A21749"/>
<stop offset="0.828125" stop-color="#A11749" stop-opacity="0"/>
</radialGradient>
<linearGradient id="paint7_linear_7139_6188" x1="33.2837" y1="27.3828" x2="33.2837" y2="9.38282" gradientUnits="userSpaceOnUse">
<stop stop-color="#E81123"/>
<stop offset="0.4437" stop-color="#EA0A4F"/>
<stop offset="1" stop-color="#EC008C"/>
</linearGradient>
<radialGradient id="paint8_radial_7139_6188" cx="0" cy="0" r="1" gradientUnits="userSpaceOnUse" gradientTransform="translate(29.6094 15.2578) rotate(90.8224) scale(13.0638 7.58393)">
<stop offset="0.688277" stop-color="#A11749" stop-opacity="0"/>
<stop offset="1" stop-color="#A21749"/>
</radialGradient>
<linearGradient id="paint9_linear_7139_6188" x1="1.29688" y1="6.88283" x2="1.29688" y2="27.3829" gradientUnits="userSpaceOnUse">
<stop stop-color="#E81123"/>
<stop offset="0.4437" stop-color="#EA0A4F"/>
<stop offset="1" stop-color="#EC008C"/>
</linearGradient>
<radialGradient id="paint10_radial_7139_6188" cx="0" cy="0" r="1" gradientUnits="userSpaceOnUse" gradientTransform="translate(2.04687 16.1329) rotate(-90) scale(8.93753 4.56661)">
<stop offset="0.479167" stop-color="#A21749"/>
<stop offset="1" stop-color="#A11749" stop-opacity="0"/>
</radialGradient>
<linearGradient id="paint11_linear_7139_6188" x1="5.54688" y1="10.5078" x2="0.119885" y2="7.85074" gradientUnits="userSpaceOnUse">
<stop offset="0.29689" stop-color="#A11749" stop-opacity="0"/>
<stop offset="0.773939" stop-color="#A21749"/>
</linearGradient>
<linearGradient id="paint12_linear_7139_6188" x1="8.39062" y1="2.38281" x2="32.8707" y2="5.87151" gradientUnits="userSpaceOnUse">
<stop stop-color="#FF8F9E"/>
<stop offset="0.817708" stop-color="#FF8F9E" stop-opacity="0"/>
</linearGradient>
<linearGradient id="paint13_linear_7139_6188" x1="24.1876" y1="2.78609" x2="24.1322" y2="4.87245" gradientUnits="userSpaceOnUse">
<stop stop-color="#FF8F9E"/>
<stop offset="1" stop-color="#FF8F9E" stop-opacity="0"/>
</linearGradient>
<linearGradient id="paint14_linear_7139_6188" x1="28.0348" y1="6.82662" x2="27.9795" y2="8.91297" gradientUnits="userSpaceOnUse">
<stop stop-color="#FF9FAC"/>
<stop offset="1" stop-color="#FF8F9E" stop-opacity="0"/>
<stop offset="1" stop-color="#FFA6B2" stop-opacity="0"/>
</linearGradient>
<linearGradient id="paint15_linear_7139_6188" x1="24.4666" y1="26.4453" x2="24.4112" y2="28.5317" gradientUnits="userSpaceOnUse">
<stop stop-color="#FF9FAC"/>
<stop offset="1" stop-color="#FF8F9E" stop-opacity="0"/>
<stop offset="1" stop-color="#FFA6B2" stop-opacity="0"/>
</linearGradient>
<linearGradient id="paint16_linear_7139_6188" x1="28.8594" y1="3.94513" x2="25.2541" y2="31.2891" gradientUnits="userSpaceOnUse">
<stop stop-color="#FF8F9E" stop-opacity="0"/>
<stop offset="0.707365" stop-color="#FF8F9E"/>
</linearGradient>
<linearGradient id="paint17_linear_7139_6188" x1="28.3643" y1="27.5202" x2="1.02722" y2="23.8627" gradientUnits="userSpaceOnUse">
<stop stop-color="#FF8F9E"/>
<stop offset="1" stop-color="#FF8F9E" stop-opacity="0"/>
</linearGradient>
<linearGradient id="paint18_linear_7139_6188" x1="4.59627" y1="4.09048" x2="10.2732" y2="31.0806" gradientUnits="userSpaceOnUse">
<stop stop-color="#FF97A5"/>
<stop offset="1" stop-color="#FFA1AD" stop-opacity="0"/>
</linearGradient>
</defs>
</svg>

<svg width="32" height="32" fill="none" xmlns="http://www.w3.org/2000/svg"><path fill-rule="evenodd" clip-rule="evenodd" d="M6.552 2.804a2 2 0 0 1 2.824-.166c3.742 3.326 9.6 3.326 13.342 0a2 2 0 1 1 2.658 2.99c-5.258 4.673-13.4 4.673-18.658 0a2 2 0 0 1-.166-2.824Z" fill="url(#a)"/><path fill-rule="evenodd" clip-rule="evenodd" d="M6.552 2.804a2 2 0 0 1 2.824-.166c3.742 3.326 9.6 3.326 13.342 0a2 2 0 1 1 2.658 2.99c-5.258 4.673-13.4 4.673-18.658 0a2 2 0 0 1-.166-2.824Z" fill="url(#b)"/><path fill-rule="evenodd" clip-rule="evenodd" d="M6.552 2.804a2 2 0 0 1 2.824-.166c3.742 3.326 9.6 3.326 13.342 0a2 2 0 1 1 2.658 2.99c-5.258 4.673-13.4 4.673-18.658 0a2 2 0 0 1-.166-2.824Z" fill="url(#c)"/><path fill-rule="evenodd" clip-rule="evenodd" d="M6.552 2.804a2 2 0 0 1 2.824-.166c3.742 3.326 9.6 3.326 13.342 0a2 2 0 1 1 2.658 2.99c-5.258 4.673-13.4 4.673-18.658 0a2 2 0 0 1-.166-2.824Z" fill="url(#d)"/><path fill-rule="evenodd" clip-rule="evenodd" d="M22.678 29.59c-3.49-3.276-9.772-3.276-13.262 0a2 2 0 1 1-2.738-2.915c5.03-4.723 13.708-4.723 18.738 0a2 2 0 0 1-2.738 2.916Z" fill="url(#e)"/><path fill-rule="evenodd" clip-rule="evenodd" d="M22.678 29.59c-3.49-3.276-9.772-3.276-13.262 0a2 2 0 1 1-2.738-2.915c5.03-4.723 13.708-4.723 18.738 0a2 2 0 0 1-2.738 2.916Z" fill="url(#f)"/><path fill-rule="evenodd" clip-rule="evenodd" d="M22.678 29.59c-3.49-3.276-9.772-3.276-13.262 0a2 2 0 1 1-2.738-2.915c5.03-4.723 13.708-4.723 18.738 0a2 2 0 0 1-2.738 2.916Z" fill="url(#g)"/><path fill-rule="evenodd" clip-rule="evenodd" d="M29.416 6.675a2 2 0 0 1 .089 2.827c-3.277 3.49-3.277 9.771 0 13.262a2 2 0 0 1-2.916 2.738c-4.723-5.03-4.723-13.709 0-18.738a2 2 0 0 1 2.827-.09Z" fill="url(#h)"/><path fill-rule="evenodd" clip-rule="evenodd" d="M29.416 6.675a2 2 0 0 1 .089 2.827c-3.277 3.49-3.277 9.771 0 13.262a2 2 0 0 1-2.916 2.738c-4.723-5.03-4.723-13.709 0-18.738a2 2 0 0 1 2.827-.09Z" fill="url(#i)"/><path fill-rule="evenodd" clip-rule="evenodd" d="M2.678 6.675a2 2 0 0 1 2.827.089c4.722 5.03 4.722 13.708 0 18.738a2 2 0 0 1-2.916-2.738c3.277-3.49 3.277-9.772 0-13.262a2 2 0 0 1 .089-2.827Z" fill="url(#j)"/><path fill-rule="evenodd" clip-rule="evenodd" d="M2.678 6.675a2 2 0 0 1 2.827.089c4.722 5.03 4.722 13.708 0 18.738a2 2 0 0 1-2.916-2.738c3.277-3.49 3.277-9.772 0-13.262a2 2 0 0 1 .089-2.827Z" fill="url(#k)"/><path fill-rule="evenodd" clip-rule="evenodd" d="M2.678 6.675a2 2 0 0 1 2.827.089c4.722 5.03 4.722 13.708 0 18.738a2 2 0 0 1-2.916-2.738c3.277-3.49 3.277-9.772 0-13.262a2 2 0 0 1 .089-2.827Z" fill="url(#l)"/><g filter="url(#m)"><path d="M8.39 3.54c1.042 1.062 7.25 5.655 15.22.468" stroke="url(#n)" stroke-linecap="round"/></g><g filter="url(#o)"><ellipse cx="24.188" cy="4.112" rx=".862" ry="1.326" transform="rotate(48.885 24.188 4.112)" fill="url(#p)"/></g><g filter="url(#q)"><ellipse cx="28.035" cy="8.152" rx=".862" ry="1.326" transform="rotate(48.885 28.035 8.152)" fill="url(#r)"/></g><g filter="url(#s)"><ellipse cx="24.467" cy="27.771" rx=".862" ry="1.326" transform="rotate(121.165 24.467 27.771)" fill="url(#t)"/></g><g filter="url(#u)"><path d="M28.936 8.047c-1.105.997-6.514 8.398 0 16.023" stroke="url(#v)" stroke-linecap="round"/></g><g filter="url(#w)"><path d="M24.61 27.59c-2.157-1.77-10.813-5.426-16.782.355" stroke="url(#x)" stroke-linecap="round"/></g><g filter="url(#y)"><path d="M4.806 7.84c1.924 2.02 5.322 10.24 0 16.62" stroke="url(#z)" stroke-linecap="round"/></g><defs><linearGradient id="a" x1="29.547" y1="-1.111" x2="6.672" y2="-1.111" gradientUnits="userSpaceOnUse"><stop stop-color="#E81123"/><stop offset=".372" stop-color="#EA0A4F"/><stop offset="1" stop-color="#EC008C"/></linearGradient><linearGradient id="c" x1="13.734" y1=".57" x2="2.984" y2="1.695" gradientUnits="userSpaceOnUse"><stop offset=".527" stop-color="#A11749" stop-opacity="0"/><stop offset="1" stop-color="#A21749"/></linearGradient><linearGradient id="d" x1="18.172" y1="4.758" x2="18.234" y2="-.367" gradientUnits="userSpaceOnUse"><stop offset=".297" stop-color="#A11749" stop-opacity="0"/><stop offset=".774" stop-color="#A21749"/></linearGradient><linearGradient id="e" x1="2.672" y1="31.258" x2="23.172" y2="31.258" gradientUnits="userSpaceOnUse"><stop stop-color="#E81123"/><stop offset=".444" stop-color="#EA0A4F"/><stop offset="1" stop-color="#EC008C"/></linearGradient><linearGradient id="h" x1="33.284" y1="27.383" x2="33.284" y2="9.383" gradientUnits="userSpaceOnUse"><stop stop-color="#E81123"/><stop offset=".444" stop-color="#EA0A4F"/><stop offset="1" stop-color="#EC008C"/></linearGradient><linearGradient id="j" x1="1.297" y1="6.883" x2="1.297" y2="27.383" gradientUnits="userSpaceOnUse"><stop stop-color="#E81123"/><stop offset=".444" stop-color="#EA0A4F"/><stop offset="1" stop-color="#EC008C"/></linearGradient><linearGradient id="l" x1="5.547" y1="10.508" x2=".12" y2="7.851" gradientUnits="userSpaceOnUse"><stop offset=".297" stop-color="#A11749" stop-opacity="0"/><stop offset=".774" stop-color="#A21749"/></linearGradient><linearGradient id="n" x1="8.391" y1="2.383" x2="32.871" y2="5.872" gradientUnits="userSpaceOnUse"><stop stop-color="#FF8F9E"/><stop offset=".818" stop-color="#FF8F9E" stop-opacity="0"/></linearGradient><linearGradient id="p" x1="24.188" y1="2.786" x2="24.132" y2="4.872" gradientUnits="userSpaceOnUse"><stop stop-color="#FF8F9E"/><stop offset="1" stop-color="#FF8F9E" stop-opacity="0"/></linearGradient><linearGradient id="r" x1="28.035" y1="6.827" x2="27.98" y2="8.913" gradientUnits="userSpaceOnUse"><stop stop-color="#FF9FAC"/><stop offset="1" stop-color="#FF8F9E" stop-opacity="0"/><stop offset="1" stop-color="#FFA6B2" stop-opacity="0"/></linearGradient><linearGradient id="t" x1="24.467" y1="26.445" x2="24.411" y2="28.532" gradientUnits="userSpaceOnUse"><stop stop-color="#FF9FAC"/><stop offset="1" stop-color="#FF8F9E" stop-opacity="0"/><stop offset="1" stop-color="#FFA6B2" stop-opacity="0"/></linearGradient><linearGradient id="v" x1="28.859" y1="3.945" x2="25.254" y2="31.289" gradientUnits="userSpaceOnUse"><stop stop-color="#FF8F9E" stop-opacity="0"/><stop offset=".707" stop-color="#FF8F9E"/></linearGradient><linearGradient id="x" x1="28.364" y1="27.52" x2="1.027" y2="23.863" gradientUnits="userSpaceOnUse"><stop stop-color="#FF8F9E"/><stop offset="1" stop-color="#FF8F9E" stop-opacity="0"/></linearGradient><linearGradient id="z" x1="4.596" y1="4.09" x2="10.273" y2="31.081" gradientUnits="userSpaceOnUse"><stop stop-color="#FF97A5"/><stop offset="1" stop-color="#FFA1AD" stop-opacity="0"/></linearGradient><filter id="m" x="6.641" y="1.789" width="18.719" height="6.392" filterUnits="userSpaceOnUse" color-interpolation-filters="sRGB"><feFlood flood-opacity="0" result="BackgroundImageFix"/><feBlend in="SourceGraphic" in2="BackgroundImageFix" result="shape"/><feGaussianBlur stdDeviation=".625" result="effect1_foregroundBlur_7139_6188"/></filter><filter id="o" x="22.039" y="2.025" width="4.297" height="4.174" filterUnits="userSpaceOnUse" color-interpolation-filters="sRGB"><feFlood flood-opacity="0" result="BackgroundImageFix"/><feBlend in="SourceGraphic" in2="BackgroundImageFix" result="shape"/><feGaussianBlur stdDeviation=".5" result="effect1_foregroundBlur_7139_6188"/></filter><filter id="q" x="25.886" y="6.065" width="4.297" height="4.174" filterUnits="userSpaceOnUse" color-interpolation-filters="sRGB"><feFlood flood-opacity="0" result="BackgroundImageFix"/><feBlend in="SourceGraphic" in2="BackgroundImageFix" result="shape"/><feGaussianBlur stdDeviation=".5" result="effect1_foregroundBlur_7139_6188"/></filter><filter id="s" x="22.247" y="25.764" width="4.438" height="4.014" filterUnits="userSpaceOnUse" color-interpolation-filters="sRGB"><feFlood flood-opacity="0" result="BackgroundImageFix"/><feBlend in="SourceGraphic" in2="BackgroundImageFix" result="shape"/><feGaussianBlur stdDeviation=".5" result="effect1_foregroundBlur_7139_6188"/></filter><filter id="u" x="24.03" y="6.297" width="6.657" height="19.523" filterUnits="userSpaceOnUse" color-interpolation-filters="sRGB"><feFlood flood-opacity="0" result="BackgroundImageFix"/><feBlend in="SourceGraphic" in2="BackgroundImageFix" result="shape"/><feGaussianBlur stdDeviation=".625" result="effect1_foregroundBlur_7139_6188"/></filter><filter id="w" x="6.078" y="23.063" width="20.281" height="6.632" filterUnits="userSpaceOnUse" color-interpolation-filters="sRGB"><feFlood flood-opacity="0" result="BackgroundImageFix"/><feBlend in="SourceGraphic" in2="BackgroundImageFix" result="shape"/><feGaussianBlur stdDeviation=".625" result="effect1_foregroundBlur_7139_6188"/></filter><filter id="y" x="3.056" y="6.09" width="6.353" height="20.121" filterUnits="userSpaceOnUse" color-interpolation-filters="sRGB"><feFlood flood-opacity="0" result="BackgroundImageFix"/><feBlend in="SourceGraphic" in2="BackgroundImageFix" result="shape"/><feGaussianBlur stdDeviation=".625" result="effect1_foregroundBlur_7139_6188"/></filter><radialGradient id="b" cx="0" cy="0" r="1" gradientUnits="userSpaceOnUse" gradientTransform="matrix(-.1875 6.125 -12.28145 -.37596 16.61 3.945)"><stop offset=".688" stop-color="#A11749" stop-opacity="0"/><stop offset="1" stop-color="#A21749"/></radialGradient><radialGradient id="f" cx="0" cy="0" r="1" gradientUnits="userSpaceOnUse" gradientTransform="rotate(-94.086 21.063 6.533) scale(6.14061 12.3127)"><stop offset=".688" stop-color="#A11749" stop-opacity="0"/><stop offset="1" stop-color="#A21749"/></radialGradient><radialGradient id="g" cx="0" cy="0" r="1" gradientUnits="userSpaceOnUse" gradientTransform="matrix(0 3.1875 -7.32701 0 16.047 28.508)"><stop stop-color="#A21749"/><stop offset=".828" stop-color="#A11749" stop-opacity="0"/></radialGradient><radialGradient id="i" cx="0" cy="0" r="1" gradientUnits="userSpaceOnUse" gradientTransform="matrix(-.1875 13.06245 -7.58315 -.10885 29.61 15.258)"><stop offset=".688" stop-color="#A11749" stop-opacity="0"/><stop offset="1" stop-color="#A21749"/></radialGradient><radialGradient id="k" cx="0" cy="0" r="1" gradientUnits="userSpaceOnUse" gradientTransform="matrix(0 -8.93753 4.56661 0 2.047 16.133)"><stop offset=".479" stop-color="#A21749"/><stop offset="1" stop-color="#A11749" stop-opacity="0"/></radialGradient></defs></svg>
